X:1
T:Perfer et obdura
T:Daniel Friderici
T:Source : Bicinia sacra---Rostock---J.Richelius---1642. Editor : André Vierendeels (01/07/17).
T:Notes : Original clefs :      G2 Editorial accidentals above the staff m 5 in S 2 : "E" notated as "D" in original print
T:Perfer et obdura
T:©
T:©
T:©
C:Daniel Friderici
Z:©
%%score [ 1 2 ]
L:1/8
Q:1/4=120
M:2/2
K:F
V:1 treble nm="Soprano 1" snm="S 1"
V:2 treble nm="Soprano 2" snm="S 2"
V:1
 c3 A B2 c2 | d4 c4 | e3 c d2 e2 | f4 e2 g2 | gfed c2 z f | edcB A2 a2 | agfe d4 | z2 f2 c4 | %8
w: Per- fer et ob-|du- ra,|per- fer et ob-|du- ra, nec|te, _ _ _ _ nec|te, _ _ _ _ nec|te, _ _ _ _|nec te|
 d2 B3 A G2 | A6 FG | A2 f2 e4 |[M:2/4] d4 ::[M:2/2] z2 e2 e3 e | e2 f4 f2 | g2 e2 f2 ed | %15
w: crux ter- re- at|ul- * *||la|qua po- si-|tus fu- e-|ris in sta- * *|
 e2 e2 d2 c2 | d4 c4 | c2 d2 e2 f2 | g2 e2 f2 g2 | a2 g2 f2 e2 | d2 c2 B2 A2 | G2 F2 E2 F2 | %22
w: * ti- o- ne|ma- ne,|ma- * * *|||||
 G4 FGAB | cBcd edef | g2 ed/e/ fefg | agag fefe | dcdc BABA | GFGF EDEF | G4 !fermata!F4 :| %29
w: ne, ma- * * *||||||* ne.|
V:2
 z8 | z8 | c3 A B2 c2 | d4 c4- | c2 g2 gfed | c2 e2 edcB | A2 a2 agfe | d4 z2 e2 | f6 g2 | %9
w: ||Per- fer et ob-|du- ra|_ nec te, _ _ _|_ nec te, _ _ _|_ nec te, _ _ _|_ nec|te crux|
 e2 cd e2 f2 | e2 d3 ^c/B/ c2 |[M:2/4]"^-natural" d4 ::[M:2/2] z2 c2 c3 c | c2 B4 A2 | G2 A2 FGAB | %15
w: ter- * * * *|re- at _ _ ul-|la|qua po- si-|tus fu- e-|ris in sta- * * *|
 c3 A BG c2- | c=B/A/ B2 c4- | c4 c2 d2 | e2 c2 d2 e2 | f2 g2 a2 g2 | f2 e2 d2 c2 | B2 A2 G2 F2- | %22
w: * ti- o- * ne|_ _ _ ma- ne,|_ ma- *|||||
 F2 E2 F4 | FGAB cBcd | e2 c2 dcde | fefg agag | fefe dcdc | BABA GFGF | ED E2 !fermata!F4 :| %29
w: * ne, ma-||ne, ma- * * * *||||* * * ne.|

